epam-assets/icon-sources/18/file-download-alternative.svg

<svg width="18" height="18" viewBox="0 0 18 18" fill="none" xmlns="http://www.w3.org/2000/svg">
<g id="18/file-download-alternative">
<g id="icon">
<path d="M4.5 16.5C4.0875 16.5 3.7345 16.3533 3.441 16.0597C3.147 15.7657 3 15.4125 3 15V3C3 2.5875 3.147 2.23425 3.441 1.94025C3.7345 1.64675 4.0875 1.5 4.5 1.5H10.5L15 6V15C15 15.4125 14.8533 15.7657 14.5597 16.0597C14.2657 16.3533 13.9125 16.5 13.5 16.5H4.5ZM9.75 6.75V3H4.5V15H13.5V6.75H9.75Z" fill="#6C6F80"/>
<path d="M9.75 8.25H8.25V11.3813L7.06875 10.2L6 11.25L9 14.25L12 11.25L10.95 10.1813L9.75 11.3813V8.25Z" fill="#6C6F80"/>
</g>
</g>
</svg>

<svg xmlns="http://www.w3.org/2000/svg" width="18" height="18" fill="none" viewBox="0 0 18 18">
  <path fill="#6C6F80" d="M4.5 16.5c-.412 0-.765-.147-1.059-.44A1.445 1.445 0 0 1 3 15V3c0-.413.147-.766.441-1.06.294-.293.647-.44 1.059-.44h6L15 6v9c0 .412-.147.766-.44 1.06a1.45 1.45 0 0 1-1.06.44h-9Zm5.25-9.75V3H4.5v12h9V6.75H9.75Z"/>
  <path fill="#6C6F80" d="M9.75 8.25h-1.5v3.131L7.069 10.2 6 11.25l3 3 3-3-1.05-1.069-1.2 1.2V8.25Z"/>
</svg>
